Newaita-dark/apps/64/wicd.svg

<?xml version="1.0" encoding="UTF-8"?>
<svg xmlns="http://www.w3.org/2000/svg" xmlns:xlink="http://www.w3.org/1999/xlink" width="64pt" height="64pt" viewBox="0 0 64 64" version="1.1">
<defs>
<radialGradient id="radial0" gradientUnits="userSpaceOnUse" cx="450.908936" cy="189.579361" fx="450.908936" fy="189.579361" r="21.166656" gradientTransform="matrix(0.000000348341,-0.156265,-0.281277,-0.000000203077,84.415653,127.014257)">
<stop offset="0" style="stop-color:rgb(0%,0%,0%);stop-opacity:0.313725;"/>
<stop offset="0.222222" style="stop-color:rgb(0%,0%,0%);stop-opacity:0.27451;"/>
<stop offset="1" style="stop-color:rgb(0%,0%,0%);stop-opacity:0;"/>
</radialGradient>
<radialGradient id="radial1" gradientUnits="userSpaceOnUse" cx="450.908936" cy="189.579361" fx="450.908936" fy="189.579361" r="21.166656" gradientTransform="matrix(-0.000000348341,0.156265,0.281277,0.000000203077,-20.909582,-15.231366)">
<stop offset="0" style="stop-color:rgb(0%,0%,0%);stop-opacity:0.313725;"/>
<stop offset="0.222222" style="stop-color:rgb(0%,0%,0%);stop-opacity:0.27451;"/>
<stop offset="1" style="stop-color:rgb(0%,0%,0%);stop-opacity:0;"/>
</radialGradient>
<radialGradient id="radial2" gradientUnits="userSpaceOnUse" cx="450.908936" cy="189.579361" fx="450.908936" fy="189.579361" r="21.166656" gradientTransform="matrix(-0.000000348341,-0.156265,0.281277,-0.000000203077,-20.909582,127.014257)">
<stop offset="0" style="stop-color:rgb(0%,0%,0%);stop-opacity:0.313725;"/>
<stop offset="0.222222" style="stop-color:rgb(0%,0%,0%);stop-opacity:0.27451;"/>
<stop offset="1" style="stop-color:rgb(0%,0%,0%);stop-opacity:0;"/>
</radialGradient>
<radialGradient id="radial3" gradientUnits="userSpaceOnUse" cx="450.908936" cy="189.579361" fx="450.908936" fy="189.579361" r="21.166656" gradientTransform="matrix(0.000000348341,0.156265,-0.281277,0.000000203077,84.415649,-15.231367)">
<stop offset="0" style="stop-color:rgb(0%,0%,0%);stop-opacity:0.313725;"/>
<stop offset="0.222222" style="stop-color:rgb(0%,0%,0%);stop-opacity:0.27451;"/>
<stop offset="1" style="stop-color:rgb(0%,0%,0%);stop-opacity:0;"/>
</radialGradient>
<linearGradient id="linear0" gradientUnits="userSpaceOnUse" x1="254" y1="233.5" x2="254" y2="-147.5" gradientTransform="matrix(0.125012,0,0,0.125012,0,26.877566)">
<stop offset="0" style="stop-color:rgb(0%,58.823529%,53.333333%);stop-opacity:1;"/>
<stop offset="1" style="stop-color:rgb(14.901961%,65.098039%,60.392157%);stop-opacity:1;"/>
</linearGradient>
<linearGradient id="linear1" gradientUnits="userSpaceOnUse" x1="254" y1="233.5" x2="254" y2="-147.5" gradientTransform="matrix(0.125012,0,0,0.125012,0,26.877566)">
<stop offset="0" style="stop-color:rgb(0%,58.823529%,53.333333%);stop-opacity:1;"/>
<stop offset="1" style="stop-color:rgb(14.901961%,65.098039%,60.392157%);stop-opacity:1;"/>
</linearGradient>
<linearGradient id="linear2" gradientUnits="userSpaceOnUse" x1="254" y1="233.5" x2="254" y2="-147.5" gradientTransform="matrix(0.125012,0,0,0.125012,0,26.877566)">
<stop offset="0" style="stop-color:rgb(0%,58.823529%,53.333333%);stop-opacity:1;"/>
<stop offset="1" style="stop-color:rgb(14.901961%,65.098039%,60.392157%);stop-opacity:1;"/>
</linearGradient>
<linearGradient id="linear3" gradientUnits="userSpaceOnUse" x1="254" y1="233.5" x2="254" y2="-147.5" gradientTransform="matrix(0.125012,0,0,0.125012,0,26.877566)">
<stop offset="0" style="stop-color:rgb(47.058824%,56.470588%,61.176471%);stop-opacity:1;"/>
<stop offset="1" style="stop-color:rgb(56.470588%,64.313725%,68.235294%);stop-opacity:1;"/>
</linearGradient>
</defs>
<g id="surface1">
<path style=" stroke:none;fill-rule:nonzero;fill:url(#radial0);" d="M 31.753906 55.890625 L 37.046875 55.890625 L 37.046875 53.246094 L 31.753906 53.246094 Z M 31.753906 55.890625 "/>
<path style=" stroke:none;fill-rule:nonzero;fill:url(#radial1);" d="M 31.753906 55.890625 L 26.460938 55.890625 L 26.460938 58.539062 L 31.753906 58.539062 Z M 31.753906 55.890625 "/>
<path style=" stroke:none;fill-rule:nonzero;fill:url(#radial2);" d="M 31.753906 55.890625 L 26.460938 55.890625 L 26.460938 53.246094 L 31.753906 53.246094 Z M 31.753906 55.890625 "/>
<path style=" stroke:none;fill-rule:nonzero;fill:url(#radial3);" d="M 31.753906 55.890625 L 37.046875 55.890625 L 37.046875 58.539062 L 31.753906 58.539062 Z M 31.753906 55.890625 "/>
<path style=" stroke:none;fill-rule:nonzero;fill:url(#linear0);" d="M 31.753906 40.523438 C 27.871094 40.523438 24.390625 42.175781 21.976562 44.820312 L 29.023438 55.074219 C 30.429688 56.398438 33.074219 56.398438 34.480469 55.074219 L 41.53125 44.820312 C 39.113281 42.175781 35.632812 40.523438 31.753906 40.523438 Z M 31.753906 40.523438 "/>
<path style=" stroke:none;fill-rule:nonzero;fill:url(#linear1);" d="M 31.753906 8.769531 C 21.1875 8.769531 11.492188 12.375 3.832031 18.433594 L 8.34375 24.996094 C 14.71875 19.8125 22.859375 16.707031 31.753906 16.707031 C 40.648438 16.707031 48.789062 19.8125 55.160156 24.996094 L 59.675781 18.433594 C 52.011719 12.375 42.320312 8.769531 31.753906 8.769531 Z M 31.753906 8.769531 "/>
<path style=" stroke:none;fill-rule:nonzero;fill:url(#linear2);" d="M 31.753906 24.644531 C 24.53125 24.644531 17.941406 27.25 12.867188 31.570312 L 17.398438 38.167969 C 21.167969 34.699219 26.203125 32.582031 31.753906 32.582031 C 37.300781 32.582031 42.339844 34.699219 46.105469 38.167969 L 50.640625 31.570312 C 45.5625 27.25 38.972656 24.644531 31.753906 24.644531 Z M 31.753906 24.644531 "/>
<path style=" stroke:none;fill-rule:nonzero;fill:url(#linear3);" d="M 31.753906 8.769531 C 21.1875 8.769531 11.492188 12.375 3.832031 18.433594 L 8.34375 24.996094 C 14.71875 19.8125 22.859375 16.707031 31.753906 16.707031 C 40.648438 16.707031 48.789062 19.8125 55.160156 24.996094 L 59.675781 18.433594 C 52.011719 12.375 42.320312 8.769531 31.753906 8.769531 Z M 31.753906 24.644531 C 24.53125 24.644531 17.941406 27.25 12.867188 31.570312 L 17.398438 38.167969 C 21.167969 34.699219 26.203125 32.582031 31.753906 32.582031 C 37.300781 32.582031 42.339844 34.699219 46.105469 38.167969 L 50.640625 31.570312 C 45.5625 27.25 38.972656 24.644531 31.753906 24.644531 Z M 31.753906 40.523438 C 27.871094 40.523438 24.390625 42.175781 21.976562 44.820312 L 29.023438 55.074219 C 30.429688 56.398438 33.074219 56.398438 34.480469 55.074219 L 41.53125 44.820312 C 39.113281 42.175781 35.632812 40.523438 31.753906 40.523438 Z M 31.753906 40.523438 "/>
<path style=" stroke:none;fill-rule:nonzero;fill:rgb(0%,0%,0%);fill-opacity:0.235294;" d="M 31.753906 16.210938 C 22.859375 16.210938 14.71875 19.3125 8.34375 24.5 L 4.054688 18.257812 C 3.980469 18.316406 3.90625 18.375 3.832031 18.433594 L 8.34375 24.996094 C 14.71875 19.8125 22.859375 16.707031 31.753906 16.707031 C 40.648438 16.707031 48.789062 19.8125 55.160156 24.996094 L 59.675781 18.433594 C 59.601562 18.375 59.527344 18.316406 59.453125 18.257812 L 55.160156 24.5 C 48.789062 19.3125 40.648438 16.210938 31.753906 16.210938 Z M 13.082031 31.390625 C 13.007812 31.449219 12.9375 31.511719 12.867188 31.570312 L 17.398438 38.167969 C 21.167969 34.699219 26.203125 32.582031 31.753906 32.582031 C 37.300781 32.582031 42.339844 34.699219 46.105469 38.167969 L 50.640625 31.570312 C 50.570312 31.511719 50.496094 31.449219 50.425781 31.390625 L 46.105469 37.671875 C 42.339844 34.203125 37.300781 32.085938 31.753906 32.085938 C 26.203125 32.085938 21.167969 34.203125 17.398438 37.671875 Z M 22.171875 44.613281 C 22.105469 44.679688 22.039062 44.75 21.976562 44.820312 L 29.023438 55.074219 C 30.429688 56.398438 33.074219 56.398438 34.480469 55.074219 L 41.53125 44.820312 C 41.464844 44.75 41.402344 44.679688 41.335938 44.613281 L 34.480469 54.578125 C 33.074219 55.902344 30.429688 55.902344 29.023438 54.578125 Z M 22.171875 44.613281 "/>
<path style=" stroke:none;fill-rule:nonzero;fill:rgb(100%,100%,100%);fill-opacity:0.392157;" d="M 31.753906 8.769531 C 21.1875 8.769531 11.492188 12.375 3.832031 18.433594 L 4.128906 18.863281 C 11.742188 12.945312 21.320312 9.429688 31.753906 9.429688 C 42.183594 9.429688 51.765625 12.945312 59.378906 18.863281 L 59.675781 18.433594 C 52.011719 12.375 42.320312 8.769531 31.753906 8.769531 Z M 31.753906 24.644531 C 24.53125 24.644531 17.941406 27.25 12.867188 31.570312 L 13.152344 31.992188 C 18.191406 27.8125 24.667969 25.308594 31.753906 25.308594 C 38.839844 25.308594 45.316406 27.8125 50.351562 31.992188 L 50.640625 31.570312 C 45.5625 27.25 38.972656 24.644531 31.753906 24.644531 Z M 31.753906 40.523438 C 27.871094 40.523438 24.390625 42.175781 21.976562 44.820312 L 22.238281 45.203125 C 24.640625 42.722656 28.011719 41.183594 31.753906 41.183594 C 35.496094 41.183594 38.867188 42.722656 41.269531 45.203125 L 41.53125 44.820312 C 39.113281 42.175781 35.632812 40.523438 31.753906 40.523438 Z M 31.753906 40.523438 "/>
<path style=" stroke:none;fill-rule:nonzero;fill:rgb(12.941177%,12.941177%,12.941177%);fill-opacity:1;" d="M 31.753906 8.582031 C 21.144531 8.582031 11.410156 12.203125 3.714844 18.285156 L 3.578125 18.394531 L 8.304688 25.269531 L 8.464844 25.140625 C 14.804688 19.980469 22.902344 16.894531 31.753906 16.894531 C 40.601562 16.894531 48.703125 19.980469 55.042969 25.140625 L 55.199219 25.269531 L 59.929688 18.394531 L 59.789062 18.285156 C 52.097656 12.203125 42.363281 8.582031 31.753906 8.582031 Z M 31.753906 8.957031 C 42.214844 8.957031 51.8125 12.507812 59.417969 18.472656 L 55.117188 24.726562 C 48.738281 19.589844 40.617188 16.519531 31.753906 16.519531 C 22.890625 16.519531 14.769531 19.589844 8.386719 24.726562 L 4.085938 18.472656 C 11.695312 12.507812 21.292969 8.957031 31.753906 8.957031 Z M 31.753906 24.457031 C 24.488281 24.457031 17.851562 27.078125 12.742188 31.429688 L 12.613281 31.539062 L 17.367188 38.453125 L 17.527344 38.304688 C 21.261719 34.867188 26.25 32.769531 31.753906 32.769531 C 37.253906 32.769531 42.246094 34.867188 45.980469 38.304688 L 46.136719 38.453125 L 50.890625 31.539062 L 50.761719 31.429688 C 45.652344 27.078125 39.019531 24.457031 31.753906 24.457031 Z M 31.753906 24.832031 C 38.867188 24.832031 45.363281 27.378906 50.386719 31.609375 L 46.070312 37.886719 C 42.289062 34.472656 37.273438 32.394531 31.753906 32.394531 C 26.234375 32.394531 21.21875 34.472656 17.433594 37.886719 L 13.117188 31.609375 C 18.144531 27.378906 24.636719 24.832031 31.753906 24.832031 Z M 31.753906 40.335938 C 27.816406 40.335938 24.285156 42.011719 21.835938 44.695312 L 21.734375 44.804688 L 28.882812 55.199219 L 28.894531 55.210938 C 29.640625 55.914062 30.699219 56.253906 31.753906 56.253906 C 32.808594 56.253906 33.863281 55.914062 34.609375 55.210938 L 34.625 55.199219 L 41.769531 44.804688 L 41.667969 44.695312 C 39.21875 42.011719 35.6875 40.335938 31.753906 40.335938 Z M 31.753906 40.710938 C 35.527344 40.710938 38.914062 42.296875 41.289062 44.84375 L 34.339844 54.949219 C 33.679688 55.5625 32.71875 55.878906 31.753906 55.878906 C 30.785156 55.878906 29.824219 55.5625 29.164062 54.949219 L 22.214844 44.84375 C 24.59375 42.296875 27.976562 40.710938 31.753906 40.710938 Z M 31.753906 40.710938 "/>
</g>
</svg>

<svg xmlns="http://www.w3.org/2000/svg" width="64pt" height="64pt" viewBox="0 0 64 64"><defs><radialGradient id="a" gradientUnits="userSpaceOnUse" cx="450.909" cy="189.579" fx="450.909" fy="189.579" r="21.167" gradientTransform="matrix(0 -.15626 -.28128 0 84.416 127.014)"><stop offset="0" stop-opacity=".314"/><stop offset=".222" stop-opacity=".275"/><stop offset="1" stop-opacity="0"/></radialGradient><radialGradient id="b" gradientUnits="userSpaceOnUse" cx="450.909" cy="189.579" fx="450.909" fy="189.579" r="21.167" gradientTransform="matrix(0 .15626 .28128 0 -20.91 -15.231)"><stop offset="0" stop-opacity=".314"/><stop offset=".222" stop-opacity=".275"/><stop offset="1" stop-opacity="0"/></radialGradient><radialGradient id="c" gradientUnits="userSpaceOnUse" cx="450.909" cy="189.579" fx="450.909" fy="189.579" r="21.167" gradientTransform="matrix(0 -.15626 .28128 0 -20.91 127.014)"><stop offset="0" stop-opacity=".314"/><stop offset=".222" stop-opacity=".275"/><stop offset="1" stop-opacity="0"/></radialGradient><radialGradient id="d" gradientUnits="userSpaceOnUse" cx="450.909" cy="189.579" fx="450.909" fy="189.579" r="21.167" gradientTransform="matrix(0 .15626 -.28128 0 84.416 -15.231)"><stop offset="0" stop-opacity=".314"/><stop offset=".222" stop-opacity=".275"/><stop offset="1" stop-opacity="0"/></radialGradient><linearGradient id="e" gradientUnits="userSpaceOnUse" x1="254" y1="233.5" x2="254" y2="-147.5" gradientTransform="translate(0 26.878) scale(.12501)"><stop offset="0" stop-color="#009688"/><stop offset="1" stop-color="#26a69a"/></linearGradient><linearGradient id="f" gradientUnits="userSpaceOnUse" x1="254" y1="233.5" x2="254" y2="-147.5" gradientTransform="translate(0 26.878) scale(.12501)"><stop offset="0" stop-color="#009688"/><stop offset="1" stop-color="#26a69a"/></linearGradient><linearGradient id="g" gradientUnits="userSpaceOnUse" x1="254" y1="233.5" x2="254" y2="-147.5" gradientTransform="translate(0 26.878) scale(.12501)"><stop offset="0" stop-color="#009688"/><stop offset="1" stop-color="#26a69a"/></linearGradient><linearGradient id="h" gradientUnits="userSpaceOnUse" x1="254" y1="233.5" x2="254" y2="-147.5" gradientTransform="translate(0 26.878) scale(.12501)"><stop offset="0" stop-color="#78909c"/><stop offset="1" stop-color="#90a4ae"/></linearGradient></defs><path d="M31.754 55.89h5.293v-2.644h-5.293zm0 0" fill="url(#a)"/><path d="M31.754 55.89H26.46v2.65h5.293zm0 0" fill="url(#b)"/><path d="M31.754 55.89H26.46v-2.644h5.293zm0 0" fill="url(#c)"/><path d="M31.754 55.89h5.293v2.65h-5.293zm0 0" fill="url(#d)"/><path d="M31.754 40.523a13.183 13.183 0 0 0-9.777 4.297l7.046 10.254c1.407 1.324 4.051 1.324 5.457 0l7.051-10.254a13.196 13.196 0 0 0-9.777-4.297zm0 0" fill="url(#e)"/><path d="M31.754 8.77c-10.567 0-20.262 3.605-27.922 9.664l4.512 6.562c6.375-5.183 14.515-8.289 23.41-8.289 8.894 0 17.035 3.105 23.406 8.29l4.516-6.563C52.012 12.375 42.32 8.77 31.754 8.77zm0 0" fill="url(#f)"/><path d="M31.754 24.645c-7.223 0-13.813 2.605-18.887 6.925l4.531 6.598a21.112 21.112 0 0 1 14.356-5.586 21.103 21.103 0 0 1 14.351 5.586l4.536-6.598a29.031 29.031 0 0 0-18.887-6.925zm0 0" fill="url(#g)"/><path d="M31.754 8.77c-10.567 0-20.262 3.605-27.922 9.664l4.512 6.562c6.375-5.183 14.515-8.289 23.41-8.289 8.894 0 17.035 3.105 23.406 8.29l4.516-6.563C52.012 12.375 42.32 8.77 31.754 8.77zm0 15.875c-7.223 0-13.813 2.605-18.887 6.925l4.531 6.598a21.112 21.112 0 0 1 14.356-5.586 21.103 21.103 0 0 1 14.351 5.586l4.536-6.598a29.031 29.031 0 0 0-18.887-6.925zm0 15.878a13.183 13.183 0 0 0-9.777 4.297l7.046 10.254c1.407 1.324 4.051 1.324 5.457 0l7.051-10.254a13.196 13.196 0 0 0-9.777-4.297zm0 0" fill="url(#h)"/><path d="M31.754 16.21c-8.895 0-17.035 3.102-23.41 8.29l-4.29-6.242-.222.176 4.512 6.562c6.375-5.183 14.515-8.289 23.41-8.289 8.894 0 17.035 3.105 23.406 8.29l4.516-6.563-.223-.176L55.16 24.5c-6.37-5.188-14.512-8.29-23.406-8.29zM13.082 31.39c-.074.06-.145.122-.215.18l4.531 6.598a21.112 21.112 0 0 1 14.356-5.586 21.103 21.103 0 0 1 14.351 5.586l4.536-6.598c-.07-.058-.145-.12-.215-.18l-4.32 6.282a21.103 21.103 0 0 0-14.352-5.586 21.112 21.112 0 0 0-14.356 5.586zm9.09 13.223a4.892 4.892 0 0 0-.195.207l7.046 10.254c1.407 1.324 4.051 1.324 5.457 0l7.051-10.254c-.066-.07-.129-.14-.195-.207l-6.856 9.965c-1.406 1.324-4.05 1.324-5.457 0zm0 0" fill-opacity=".235"/><path d="M31.754 8.77c-10.567 0-20.262 3.605-27.922 9.664l.297.43C11.742 12.944 21.32 9.43 31.754 9.43c10.43 0 20.012 3.515 27.625 9.433l.297-.43C52.012 12.376 42.32 8.77 31.754 8.77zm0 15.875c-7.223 0-13.813 2.605-18.887 6.925l.285.422c5.04-4.18 11.516-6.683 18.602-6.683s13.562 2.503 18.598 6.683l.289-.422a29.031 29.031 0 0 0-18.887-6.925zm0 15.878a13.183 13.183 0 0 0-9.777 4.297l.261.383a13.196 13.196 0 0 1 9.516-4.02c3.742 0 7.113 1.54 9.516 4.02l.261-.383a13.196 13.196 0 0 0-9.777-4.297zm0 0" fill="#fff" fill-opacity=".392"/><path d="M31.754 8.582c-10.61 0-20.344 3.621-28.04 9.703l-.136.11 4.727 6.875.16-.13c6.34-5.16 14.437-8.245 23.289-8.245 8.848 0 16.95 3.085 23.289 8.246l.156.129 4.73-6.875-.14-.11c-7.691-6.082-17.426-9.703-28.035-9.703zm0 .375c10.46 0 20.058 3.55 27.664 9.516l-4.3 6.254c-6.38-5.137-14.5-8.207-23.364-8.207-8.863 0-16.984 3.07-23.367 8.207l-4.301-6.254c7.61-5.965 17.207-9.516 27.668-9.516zm0 15.5c-7.266 0-13.902 2.621-19.012 6.973l-.129.11 4.754 6.913.16-.148a20.915 20.915 0 0 1 14.227-5.535c5.5 0 10.492 2.097 14.226 5.535l.157.148 4.754-6.914-.13-.11c-5.109-4.35-11.741-6.972-19.007-6.972zm0 .375c7.113 0 13.61 2.547 18.633 6.777l-4.317 6.278a21.277 21.277 0 0 0-14.316-5.492 21.294 21.294 0 0 0-14.32 5.492l-4.317-6.278c5.028-4.23 11.52-6.777 18.637-6.777zm0 15.504a13.372 13.372 0 0 0-9.918 4.36l-.102.109 7.149 10.394.012.012c.746.703 1.804 1.043 2.859 1.043s2.11-.34 2.855-1.043l.016-.012 7.145-10.394-.102-.11a13.37 13.37 0 0 0-9.914-4.36zm0 .375c3.773 0 7.16 1.586 9.535 4.133l-6.95 10.105c-.66.614-1.62.93-2.585.93-.969 0-1.93-.316-2.59-.93l-6.95-10.105a12.99 12.99 0 0 1 9.54-4.133zm0 0" fill="#212121"/></svg>
